!!!OTL: Es wollt ein J&auml;gerlein jagen (3-55), S. 161
!!!id: P1027
**kern
*clefG2
*k[b-e-]
*B-:
{8f
=1
8.f
16f
8f
=2
8f
8g
8a
=3
4b-
8g
=4
4g}
=5
{8g
=6
8.g
16g
8g
=7
8b-
8a
8g
=8
4f
8b-
=9
4d}
=10
{8f
=11
4f
8e-
=12
8.c
16a
8a
=13
8.b-
16b-
8b-
=14
4dd}
=15
{8b-
=16
4cc
8cc
=17
8ee-
16dd
16dd
8cc
=18
4b-}
==
*-
!!!minrhy: 16
!!!meters: 3/8 ]  ZZ[4
!!!cut: Es wollt ein J&auml;gerlein jagen (3-55), S. 161
!!!reg: Lothringen
!!!trd: PINCK, Louis: Verklingende Weisen, Bd3, Metz 1933
!!!rhy1: X_  X_.XX_  X_X_X_  X__X_  X__
!!!rhy2: X_  X_.XX_  X_X_X_  X__X_  X__
!!!key: P1027  16 Bb 3/8 ]  ZZ[4
!!!mod: HEPTATONIK IONISCH]  AMBITUS[10b
!!!kad: -6-331
!!!akz: -5-51-6_-61-5-3_-5-213_241_
!!!fot: 'a__b__c__bs"
!!!for: 'a__a__b__c__
!!!fok: '^a_^d_Va_^__
!! PHRAS[AUFTAKTIG]
!!!fkt: Jaglied, Brautwerbung?
!! LOTH VKL
!! PR[16] 2K[8] 2G[24] 3K[4] 3G[4] 4A[6] 4Ü[0] 5A[0] 6K[0] 6G[0]
!! 7K[0] 7G[0] 8A[0] MEHR[0] SI[45] ABS[51] SR[31] SP[14]
!! ST[12] 2k[4] 2g[24] 3k[4] 3g[0] 4d[8] 4ü[0] 5d[0] 6k[0] 6g[0]
!! 7k[0] 7g[0] 8d[0] mehr[0] si[39] dm[+6] sr[27] sp[12]
!! 1F[8] 2F[38] 3F[31] 4F[0] LF[0] 2P[4] 3P[13] 4P[6] TRI[6] DF[6] AB[52]
!! TF[0] U3K[0] U3[0] U4[0] U4Ü[0] U5[6] U6K[0] U6[0] U7K[0] U7[4]
!! N1[13] N2K[0] N2[23] N3K[0] N3[23] N4[8] N4Ü[0] N5[15] N6K[0] N6[8]
!!!n7k: 0] N7[0] O1[0] O2K[0] O2[0] O3K[0] O3[0] HÖ[0
!!!RNB: symbol: &auml;      = a umlaut  (UTF-8: Å„)
